webapp/src/assets/icons/cloudproviders/aws/storage/s3.svg

<svg width="48" height="48" xmlns="http://www.w3.org/2000/svg"><path d="m40.542 26.158.222-1.645c1.738 1.059 2.31 1.694 2.487 1.968-.293.057-1.034.085-2.709-.323Zm-3.995 14.678a1.005 1.005 0 0 0-.009.134c0 .154-.38.744-2.066 1.411-.75.296-1.639.562-2.641.794-2.582.596-5.749.925-8.917.925-8.475 0-13.621-2.174-13.621-3.13 0-.045-.003-.089-.009-.134L5.441 12.293c.248.144.515.283.794.418.076.036.158.07.235.105.245.113.5.223.765.329l.329.128c.284.106.577.209.879.308.079.025.155.054.237.079.382.12.779.234 1.189.344.106.027.216.053.323.081.322.081.648.16.982.234.135.03.268.06.404.088.375.079.756.154 1.145.225.074.013.147.029.222.042.462.082.934.156 1.411.224.131.02.264.036.396.055.367.05.736.097 1.11.141l.441.049c.45.048.902.092 1.359.131l.151.014a62.92 62.92 0 0 0 1.525.103l.428.022c.386.018.774.034 1.162.047.15.005.299.01.448.013a60.8 60.8 0 0 0 1.538.021c.512 0 1.025-.008 1.539-.021.149-.003.298-.008.447-.013.389-.013.776-.029 1.163-.047l.427-.022a63.432 63.432 0 0 0 1.527-.103l.145-.014c.459-.038.914-.083 1.365-.132.147-.015.291-.032.437-.048.377-.044.749-.091 1.118-.142.13-.018.26-.034.389-.053a48.31 48.31 0 0 0 1.417-.225c.069-.013.135-.027.205-.039.395-.072.784-.149 1.165-.229.131-.027.261-.057.39-.085a34.45 34.45 0 0 0 1.003-.239c.101-.027.204-.051.304-.077.414-.11.816-.225 1.202-.347.073-.023.141-.048.212-.071.313-.102.615-.207.906-.318.106-.039.209-.08.313-.121.273-.109.537-.221.79-.339.069-.032.144-.063.213-.096.281-.135.55-.275.8-.42l-1.793 13.314c-4.571-1.435-10.667-4.212-13.434-5.512a2.002 2.002 0 0 0-1.999-1.995c-1.102 0-2 .898-2 2 0 1.103.898 2 2 2 .36 0 .694-.103.987-.271 3.16 1.491 9.452 4.349 14.175 5.788l-1.78 13.219ZM22.914 4c10.43 0 17.778 3.231 17.916 5.026l-.027.209c-.018.06-.057.122-.088.185-.028.052-.048.105-.086.159-.045.062-.108.126-.166.188-.051.055-.094.11-.154.165-.071.064-.161.129-.245.194-.072.055-.136.11-.218.167-.098.065-.214.131-.325.197-.091.055-.175.109-.277.164-.125.067-.269.135-.408.202-.107.052-.208.106-.325.157-.154.069-.325.136-.491.204-.125.049-.241.1-.374.15-.178.066-.376.132-.568.197-.14.048-.273.097-.42.145-.205.064-.428.127-.644.189-.156.045-.303.092-.465.135-.227.062-.473.12-.714.179-.171.042-.333.086-.511.126-.255.058-.527.112-.795.167-.18.037-.352.076-.539.111-.284.055-.587.104-.885.153-.186.033-.364.067-.555.096-.306.048-.629.089-.947.132-.201.027-.392.057-.597.082-.333.041-.683.075-1.028.11-.205.021-.402.045-.611.065-.346.031-.709.054-1.066.08-.225.016-.44.037-.668.051-.381.022-.777.036-1.168.051-.219.009-.429.023-.651.03a65.424 65.424 0 0 1-3.8 0c-.221-.007-.43-.021-.648-.029-.392-.016-.789-.03-1.17-.052-.225-.014-.438-.035-.66-.05-.36-.027-.725-.05-1.074-.081-.204-.019-.396-.043-.596-.064-.35-.036-.705-.069-1.043-.111-.198-.025-.385-.054-.579-.079-.324-.044-.653-.086-.965-.135-.183-.028-.354-.061-.533-.092-.307-.051-.616-.101-.908-.157-.176-.033-.337-.07-.507-.104-.278-.058-.561-.114-.827-.174-.166-.038-.317-.079-.479-.118-.252-.062-.507-.123-.746-.187-.152-.041-.289-.085-.433-.127a26.854 26.854 0 0 1-.675-.198c-.138-.044-.26-.09-.392-.134-.202-.069-.41-.138-.597-.208-.123-.046-.23-.094-.346-.141-.176-.07-.357-.14-.518-.212-.109-.049-.203-.099-.304-.148-.147-.07-.298-.141-.429-.212-.095-.052-.173-.102-.26-.154-.116-.07-.239-.139-.341-.208-.078-.053-.138-.106-.208-.158-.087-.068-.18-.135-.254-.202-.059-.053-.1-.106-.149-.16-.06-.064-.125-.129-.17-.192-.038-.054-.057-.106-.084-.158-.033-.063-.072-.125-.09-.186l-.027-.209C5.141 7.231 12.487 4 22.914 4Zm22.383 22.277c-.216-1.154-1.543-2.373-4.244-3.91L42.771 9.6v-.002l.052-.389a.976.976 0 0 0 .009-.132C42.832 4.906 32.335 2 22.914 2 13.495 2 3 4.906 3 9.077c0 .044.003.088.009.132l.052.389V9.6l4.233 31.447c.131 3.679 9.622 5.053 15.62 5.053 3.315 0 6.642-.346 9.367-.976a20.898 20.898 0 0 0 2.925-.883c2.167-.857 3.287-1.933 3.331-3.194l1.736-12.896c1.025.241 1.867.363 2.553.363.991 0 1.658-.252 2.083-.759.351-.417.488-.942.388-1.478Z" fill="#7AA116" fill-rule="evenodd"/></svg>

<?xml version="1.0" encoding="UTF-8"?>
<svg width="48px" height="48px" viewBox="0 0 48 48" version="1.1" xmlns="http://www.w3.org/2000/svg" xmlns:xlink="http://www.w3.org/1999/xlink">
    <title>Icon-Resource/Storage/Res_Amazon-Simple-Storage-Service_S3-Standard_48</title>
    <g id="Icon-Resource/Storage/Res_Amazon-Simple-Storage-Service_S3-Standard_48" stroke="none" stroke-width="1" fill="none" fill-rule="evenodd">
        <path d="M40.542,26.158 L40.764,24.513 C42.502,25.572 43.074,26.207 43.251,26.481 C42.958,26.538 42.217,26.566 40.542,26.158 L40.542,26.158 Z M36.547,40.836 C36.541,40.881 36.538,40.925 36.538,40.97 C36.538,41.124 36.158,41.714 34.472,42.381 C33.722,42.677 32.833,42.943 31.831,43.175 C29.249,43.771 26.082,44.1 22.914,44.1 C14.439,44.1 9.293,41.926 9.293,40.97 C9.293,40.925 9.29,40.881 9.284,40.836 L5.441,12.293 C5.689,12.437 5.956,12.576 6.235,12.711 C6.311,12.747 6.393,12.781 6.47,12.816 C6.715,12.929 6.97,13.039 7.235,13.145 C7.344,13.188 7.453,13.23 7.564,13.273 C7.848,13.379 8.141,13.482 8.443,13.581 C8.522,13.606 8.598,13.635 8.68,13.66 C9.062,13.78 9.459,13.894 9.869,14.004 C9.975,14.031 10.085,14.057 10.192,14.085 C10.514,14.166 10.84,14.245 11.174,14.319 C11.309,14.349 11.442,14.379 11.578,14.407 C11.953,14.486 12.334,14.561 12.723,14.632 C12.797,14.645 12.87,14.661 12.945,14.674 C13.407,14.756 13.879,14.83 14.356,14.898 C14.487,14.918 14.62,14.934 14.752,14.953 C15.119,15.003 15.488,15.05 15.862,15.094 C16.01,15.11 16.155,15.127 16.303,15.143 C16.753,15.191 17.205,15.235 17.662,15.274 C17.713,15.278 17.762,15.283 17.813,15.288 C18.318,15.329 18.827,15.362 19.338,15.391 C19.48,15.399 19.623,15.405 19.766,15.413 C20.152,15.431 20.54,15.447 20.928,15.46 C21.078,15.465 21.227,15.47 21.376,15.473 C21.89,15.486 22.402,15.494 22.914,15.494 C23.426,15.494 23.939,15.486 24.453,15.473 C24.602,15.47 24.751,15.465 24.9,15.46 C25.289,15.447 25.676,15.431 26.063,15.413 C26.206,15.405 26.348,15.399 26.49,15.391 C27.001,15.362 27.511,15.329 28.017,15.288 C28.065,15.284 28.113,15.278 28.162,15.274 C28.621,15.236 29.076,15.191 29.527,15.142 C29.674,15.127 29.818,15.11 29.964,15.094 C30.341,15.05 30.713,15.003 31.082,14.952 C31.212,14.934 31.342,14.918 31.471,14.899 C31.95,14.83 32.424,14.755 32.888,14.674 C32.957,14.661 33.023,14.647 33.093,14.635 C33.488,14.563 33.877,14.486 34.258,14.406 C34.389,14.379 34.519,14.349 34.648,14.321 C34.99,14.245 35.324,14.165 35.651,14.082 C35.752,14.055 35.855,14.031 35.955,14.005 C36.369,13.895 36.771,13.78 37.157,13.658 C37.23,13.635 37.298,13.61 37.369,13.587 C37.682,13.485 37.984,13.38 38.275,13.269 C38.381,13.23 38.484,13.189 38.588,13.148 C38.861,13.039 39.125,12.927 39.378,12.809 C39.447,12.777 39.522,12.746 39.591,12.713 C39.872,12.578 40.141,12.438 40.391,12.293 L38.598,25.607 C34.027,24.172 27.931,21.395 25.164,20.095 C25.161,18.995 24.266,18.1 23.165,18.1 C22.063,18.1 21.165,18.998 21.165,20.1 C21.165,21.203 22.063,22.1 23.165,22.1 C23.525,22.1 23.859,21.997 24.152,21.829 C27.312,23.32 33.604,26.178 38.327,27.617 L36.547,40.836 Z M22.914,4 C33.344,4 40.692,7.231 40.83,9.026 L40.803,9.235 C40.785,9.295 40.746,9.357 40.715,9.42 C40.687,9.472 40.667,9.525 40.629,9.579 C40.584,9.641 40.521,9.705 40.463,9.767 C40.412,9.822 40.369,9.877 40.309,9.932 C40.238,9.996 40.148,10.061 40.064,10.126 C39.992,10.181 39.928,10.236 39.846,10.293 C39.748,10.358 39.632,10.424 39.521,10.49 C39.43,10.545 39.346,10.599 39.244,10.654 C39.119,10.721 38.975,10.789 38.836,10.856 C38.729,10.908 38.628,10.962 38.511,11.013 C38.357,11.082 38.186,11.149 38.02,11.217 C37.895,11.266 37.779,11.317 37.646,11.367 C37.468,11.433 37.27,11.499 37.078,11.564 C36.938,11.612 36.805,11.661 36.658,11.709 C36.453,11.773 36.23,11.836 36.014,11.898 C35.858,11.943 35.711,11.99 35.549,12.033 C35.322,12.095 35.076,12.153 34.835,12.212 C34.664,12.254 34.502,12.298 34.324,12.338 C34.069,12.396 33.797,12.45 33.529,12.505 C33.349,12.542 33.177,12.581 32.99,12.616 C32.706,12.671 32.403,12.72 32.105,12.769 C31.919,12.802 31.741,12.836 31.55,12.865 C31.244,12.913 30.921,12.954 30.603,12.997 C30.402,13.024 30.211,13.054 30.006,13.079 C29.673,13.12 29.323,13.154 28.978,13.189 C28.773,13.21 28.576,13.234 28.367,13.254 C28.021,13.285 27.658,13.308 27.301,13.334 C27.076,13.35 26.861,13.371 26.633,13.385 C26.252,13.407 25.856,13.421 25.465,13.436 C25.246,13.445 25.036,13.459 24.814,13.466 C24.194,13.484 23.561,13.494 22.914,13.494 C22.268,13.494 21.634,13.484 21.014,13.466 C20.793,13.459 20.584,13.445 20.366,13.437 C19.974,13.421 19.577,13.407 19.196,13.385 C18.971,13.371 18.758,13.35 18.536,13.335 C18.176,13.308 17.811,13.285 17.462,13.254 C17.258,13.235 17.066,13.211 16.866,13.19 C16.516,13.154 16.161,13.121 15.823,13.079 C15.625,13.054 15.438,13.025 15.244,13 C14.92,12.956 14.591,12.914 14.279,12.865 C14.096,12.837 13.925,12.804 13.746,12.773 C13.439,12.722 13.13,12.672 12.838,12.616 C12.662,12.583 12.501,12.546 12.331,12.512 C12.053,12.454 11.77,12.398 11.504,12.338 C11.338,12.3 11.187,12.259 11.025,12.22 C10.773,12.158 10.518,12.097 10.279,12.033 C10.127,11.992 9.99,11.948 9.846,11.906 C9.617,11.841 9.385,11.775 9.171,11.708 C9.033,11.664 8.911,11.618 8.779,11.574 C8.577,11.505 8.369,11.436 8.182,11.366 C8.059,11.32 7.952,11.272 7.836,11.225 C7.66,11.155 7.479,11.085 7.318,11.013 C7.209,10.964 7.115,10.914 7.014,10.865 C6.867,10.795 6.716,10.724 6.585,10.653 C6.49,10.601 6.412,10.551 6.325,10.499 C6.209,10.429 6.086,10.36 5.984,10.291 C5.906,10.238 5.846,10.185 5.776,10.133 C5.689,10.065 5.596,9.998 5.522,9.931 C5.463,9.878 5.422,9.825 5.373,9.771 C5.313,9.707 5.248,9.642 5.203,9.579 C5.165,9.525 5.146,9.473 5.119,9.421 C5.086,9.358 5.047,9.296 5.029,9.235 L5.002,9.026 C5.141,7.231 12.487,4 22.914,4 L22.914,4 Z M45.297,26.277 C45.081,25.123 43.754,23.904 41.053,22.367 L42.771,9.6 L42.771,9.599 L42.771,9.598 L42.823,9.209 C42.829,9.165 42.832,9.121 42.832,9.077 C42.832,4.906 32.335,2 22.914,2 C13.495,2 3,4.906 3,9.077 C3,9.121 3.003,9.165 3.009,9.209 L3.061,9.598 L3.061,9.599 L3.061,9.6 L7.294,41.047 C7.425,44.726 16.916,46.1 22.914,46.1 C26.229,46.1 29.556,45.754 32.281,45.124 C33.38,44.87 34.363,44.573 35.206,44.241 C37.373,43.384 38.493,42.308 38.537,41.047 L40.273,28.151 C41.298,28.392 42.14,28.514 42.826,28.514 C43.817,28.514 44.484,28.262 44.909,27.755 C45.26,27.338 45.397,26.813 45.297,26.277 L45.297,26.277 Z" id="Amazon-Simple-Storage_Service-Standard_Resource-Icon_light-bg" fill="#7AA116"></path>
    </g>
</svg>
